; G-Code generated by Simplify3D(R) Version 4.0.1
; Aug 22, 2018 at 1:28:20 PM
; Settings Summary
;   processName,Process1
;   applyToModels,full bed print
;   profileName,Robo3D R2 (modified)
;   profileVersion,2018-01-19 08:00:00
;   baseProfile,
;   printMaterial,PLA
;   printQuality,Medium
;   printExtruders,
;   extruderName,Primary Extruder
;   extruderToolheadNumber,0
;   extruderDiameter,0.4
;   extruderAutoWidth,0
;   extruderWidth,0.4
;   extrusionMultiplier,1
;   extruderUseRetract,1
;   extruderRetractionDistance,3
;   extruderExtraRestartDistance,0
;   extruderRetractionZLift,0.75
;   extruderRetractionSpeed,2700
;   extruderUseCoasting,0
;   extruderCoastingDistance,0.2
;   extruderUseWipe,1
;   extruderWipeDistance,5
;   primaryExtruder,0
;   layerHeight,0.2
;   topSolidLayers,6
;   bottomSolidLayers,6
;   perimeterOutlines,6
;   printPerimetersInsideOut,1
;   startPointOption,2
;   startPointOriginX,0
;   startPointOriginY,0
;   sequentialIslands,0
;   spiralVaseMode,0
;   firstLayerHeightPercentage,95
;   firstLayerWidthPercentage,200
;   firstLayerUnderspeed,0.8
;   useRaft,0
;   raftExtruder,0
;   raftTopLayers,3
;   raftBaseLayers,2
;   raftOffset,3
;   raftSeparationDistance,0.14
;   raftTopInfill,100
;   aboveRaftSpeedMultiplier,0.3
;   useSkirt,0
;   skirtExtruder,0
;   skirtLayers,1
;   skirtOutlines,3
;   skirtOffset,4
;   usePrimePillar,0
;   primePillarExtruder,999
;   primePillarWidth,12
;   primePillarLocation,7
;   primePillarSpeedMultiplier,1
;   useOozeShield,0
;   oozeShieldExtruder,999
;   oozeShieldOffset,2
;   oozeShieldOutlines,1
;   oozeShieldSidewallShape,1
;   oozeShieldSidewallAngle,30
;   oozeShieldSpeedMultiplier,1
;   infillExtruder,0
;   internalInfillPattern,Triangular
;   externalInfillPattern,Rectilinear
;   infillPercentage,100
;   outlineOverlapPercentage,40
;   infillExtrusionWidthPercentage,130
;   minInfillLength,5
;   infillLayerInterval,1
;   internalInfillAngles,0,60,-60
;   overlapInternalInfillAngles,1
;   externalInfillAngles,45,-45
;   generateSupport,0
;   supportExtruder,0
;   supportInfillPercentage,30
;   supportExtraInflation,0
;   supportBaseLayers,0
;   denseSupportExtruder,0
;   denseSupportLayers,0
;   denseSupportInfillPercentage,70
;   supportLayerInterval,1
;   supportHorizontalPartOffset,0.3
;   supportUpperSeparationLayers,1
;   supportLowerSeparationLayers,1
;   supportType,0
;   supportGridSpacing,4
;   maxOverhangAngle,45
;   supportAngles,0
;   temperatureName,Primary Extruder,Heated Bed
;   temperatureNumber,0,0
;   temperatureSetpointCount,1,1
;   temperatureSetpointLayers,1,1
;   temperatureSetpointTemperatures,190,60
;   temperatureStabilizeAtStartup,1,1
;   temperatureHeatedBed,0,1
;   temperatureRelayBetweenLayers,0,0
;   temperatureRelayBetweenLoops,0,0
;   fanLayers,1,2
;   fanSpeeds,0,100
;   blipFanToFullPower,1
;   adjustSpeedForCooling,1
;   minSpeedLayerTime,15
;   minCoolingSpeedSlowdown,20
;   increaseFanForCooling,0
;   minFanLayerTime,45
;   maxCoolingFanSpeed,100
;   increaseFanForBridging,0
;   bridgingFanSpeed,100
;   use5D,1
;   relativeEdistances,0
;   allowEaxisZeroing,1
;   independentExtruderAxes,0
;   includeM10123,0
;   stickySupport,1
;   applyToolheadOffsets,0
;   gcodeXoffset,0
;   gcodeYoffset,0
;   gcodeZoffset,0
;   overrideMachineDefinition,1
;   machineTypeOverride,0
;   strokeXoverride,203
;   strokeYoverride,203
;   strokeZoverride,254
;   originOffsetXoverride,0
;   originOffsetYoverride,0
;   originOffsetZoverride,0
;   homeXdirOverride,-1
;   homeYdirOverride,-1
;   homeZdirOverride,-1
;   flipXoverride,1
;   flipYoverride,-1
;   flipZoverride,1
;   toolheadOffsets,0,0|0,0|0,0|0,0|0,0|0,0
;   overrideFirmwareConfiguration,1
;   firmwareTypeOverride,RepRap (Marlin/Repetier/Sprinter)
;   GPXconfigOverride,r2
;   baudRateOverride,250000
;   overridePrinterModels,1
;   printerModelsOverride,Robo3D_R2.stl
;   startingGcode,M109 S[extruder0_temperature] ; stabilize extruder print temperature,G1 X200 Y20 Z0.1 F3000 ; move forward,G1 Y60 F1000 ; wipe off excess ooze
;   layerChangeGcode,
;   retractionGcode,
;   toolChangeGcode,
;   endingGcode,
;   exportFileFormat,gcode
;   celebration,0
;   celebrationSong,Random Song
;   postProcessing,
;   defaultSpeed,3000
;   outlineUnderspeed,0.5
;   solidInfillUnderspeed,0.6
;   supportUnderspeed,0.8
;   rapidXYspeed,4800
;   rapidZspeed,1000
;   minBridgingArea,50
;   bridgingExtraInflation,0
;   bridgingExtrusionMultiplier,1
;   bridgingSpeedMultiplier,1
;   useFixedBridgingAngle,0
;   fixedBridgingAngle,0
;   applyBridgingToPerimeters,0
;   filamentDiameters,1.75|1.75|1.75|1.75|1.75|1.75
;   filamentPricesPerKg,46|46|46|46|46|46
;   filamentDensities,1.25|1.25|1.25|1.25|1.25|1.25
;   useMinPrintHeight,0
;   minPrintHeight,0
;   useMaxPrintHeight,0
;   maxPrintHeight,0
;   useDiaphragm,0
;   diaphragmLayerInterval,20
;   robustSlicing,1
;   mergeAllIntoSolid,0
;   onlyRetractWhenCrossingOutline,1
;   retractBetweenLayers,1
;   useRetractionMinTravel,0
;   retractionMinTravel,3
;   retractWhileWiping,0
;   onlyWipeOutlines,1
;   avoidCrossingOutline,0
;   maxMovementDetourFactor,3
;   toolChangeRetractionDistance,12
;   toolChangeExtraRestartDistance,-0.5
;   toolChangeRetractionSpeed,600
;   externalThinWallType,1
;   internalThinWallType,1
;   thinWallAllowedOverlapPercentage,10
;   singleExtrusionMinLength,1
;   singleExtrusionMinPrintingWidthPercentage,50
;   singleExtrusionMaxPrintingWidthPercentage,200
;   singleExtrusionEndpointExtension,0.2
;   horizontalSizeCompensation,0
G90
M82
M106 S255
G4 P500
M106 S0
M140 S60
M190 S60
M109 S190 ; stabilize extruder print temperature
G1 X200 Y20 Z0.1 F3000 ; move forward
G1 Y60 F1000 ; wipe off excess ooze
G92 E0
G1 E-3.0000 F2700
G1 Z0.940 F1000
; process Process1
; layer 1, Z = 0.190
T0
; tool H0.200 W0.800
; external single extrusion
G1 X4.200 Y3.360 F4800
G1 Z0.190 F1000
G1 E0.0000 F810
G92 E0
; tool H0.200 W0.400
G1 X4.200 Y199.640 E6.5283 F1200
G92 E0
G1 E-3.0000 F2700
G1 Z0.940 F1000
G1 X3.400 Y199.800 F4800
G1 Z0.190 F1000
G1 E0.0000 F2700
; tool H0.200 W0.800
G92 E0
; tool H0.200 W0.408
G1 X3.320 Y199.792 E0.0027 F1200
; tool H0.200 W0.440
G1 X3.240 Y199.768 E0.0058
; tool H0.200 W0.464
G1 X3.232 Y199.760 E0.0062
; tool H0.200 W0.440
G1 X3.208 Y199.680 E0.0093
; tool H0.200 W0.408
G1 X3.200 Y199.600 E0.0120
; tool H0.200 W0.400
G1 X3.200 Y199.520 E0.0147
G1 X3.200 Y3.480 E6.5350
G1 X3.200 Y3.400 E6.5376
; tool H0.200 W0.408
G1 X3.208 Y3.320 E6.5404
; tool H0.200 W0.440
G1 X3.232 Y3.240 E6.5434
; tool H0.200 W0.464
G1 X3.240 Y3.232 E6.5439
; tool H0.200 W0.440
G1 X3.320 Y3.208 E6.5469
; tool H0.200 W0.408
G1 X3.400 Y3.200 E6.5496
; tool H0.200 W0.400
G1 X3.480 Y3.200 E6.5523
G1 X3.960 Y3.200 E6.5683
; tool H0.200 W0.402
G1 X4.040 Y3.202 E6.5709
; tool H0.200 W0.420
G1 X4.120 Y3.218 E6.5738
; tool H0.200 W0.468
G1 X4.200 Y3.250 E6.5771
G1 X4.280 Y3.218 E6.5805
; tool H0.200 W0.420
G1 X4.360 Y3.202 E6.5833
; tool H0.200 W0.402
G1 X4.440 Y3.200 E6.5860
; tool H0.200 W0.400
G1 X5.000 Y3.200 E6.6046
; tool H0.200 W0.408
G1 X5.080 Y3.208 E6.6074
; tool H0.200 W0.440
G1 X5.160 Y3.232 E6.6104
; tool H0.200 W0.464
G1 X5.240 Y3.232 E6.6135
; tool H0.200 W0.440
G1 X5.320 Y3.208 E6.6166
; tool H0.200 W0.408
G1 X5.400 Y3.200 E6.6193
; tool H0.200 W0.400
G1 X5.479 Y3.200 E6.6219
G1 X5.959 Y3.200 E6.6379
; tool H0.200 W0.402
G1 X6.039 Y3.202 E6.6406
; tool H0.200 W0.420
G1 X6.119 Y3.218 E6.6434
; tool H0.200 W0.467
G1 X6.199 Y3.250 E6.6468
G1 X6.279 Y3.218 E6.6501
; tool H0.200 W0.420
G1 X6.359 Y3.202 E6.6530
; tool H0.200 W0.402
G1 X6.439 Y3.200 E6.6556
; tool H0.200 W0.400
G1 X6.999 Y3.200 E6.6743
; tool H0.200 W0.408
G1 X7.079 Y3.208 E6.6770
; tool H0.200 W0.439
G1 X7.159 Y3.232 E6.6800
; tool H0.200 W0.464
G1 X7.239 Y3.232 E6.6831
; tool H0.200 W0.441
G1 X7.319 Y3.208 E6.6862
; tool H0.200 W0.408
G1 X7.399 Y3.200 E6.6889
; tool H0.200 W0.400
G1 X7.479 Y3.200 E6.6916
G1 X7.959 Y3.200 E6.7075
; tool H0.200 W0.402
G1 X8.039 Y3.202 E6.7102
; tool H0.200 W0.420
G1 X8.119 Y3.218 E6.7130
; tool H0.200 W0.467
G1 X8.199 Y3.249 E6.7164
G1 X8.279 Y3.218 E6.7197
; tool H0.200 W0.420
G1 X8.359 Y3.202 E6.7226
; tool H0.200 W0.402
G1 X8.439 Y3.200 E6.7253
; tool H0.200 W0.400
G1 X8.999 Y3.200 E6.7439
; tool H0.200 W0.408
G1 X9.079 Y3.208 E6.7466
; tool H0.200 W0.439
G1 X9.159 Y3.232 E6.7496
; tool H0.200 W0.464
G1 X9.239 Y3.233 E6.7527
; tool H0.200 W0.441
G1 X9.319 Y3.208 E6.7558
; tool H0.200 W0.408
G1 X9.399 Y3.200 E6.7585
; tool H0.200 W0.400
G1 X9.479 Y3.200 E6.7612
G1 X9.959 Y3.200 E6.7771
; tool H0.200 W0.402
G1 X10.039 Y3.202 E6.7798
; tool H0.200 W0.419
G1 X10.119 Y3.218 E6.7827
; tool H0.200 W0.467
G1 X10.199 Y3.249 E6.7860
G1 X10.279 Y3.218 E6.7893
; tool H0.200 W0.421
G1 X10.359 Y3.202 E6.7922
; tool H0.200 W0.402
G1 X10.438 Y3.200 E6.7949
; tool H0.200 W0.400
G1 X10.998 Y3.200 E6.8135
; tool H0.200 W0.408
G1 X11.078 Y3.208 E6.8162
; tool H0.200 W0.439
G1 X11.158 Y3.231 E6.8193
; tool H0.200 W0.464
G1 X11.238 Y3.233 E6.8223
; tool H0.200 W0.441
G1 X11.318 Y3.208 E6.8254
; tool H0.200 W0.408
G1 X11.398 Y3.200 E6.8281
; tool H0.200 W0.400
G1 X11.478 Y3.200 E6.8308
G1 X11.958 Y3.200 E6.8468
; tool H0.200 W0.402
G1 X12.038 Y3.202 E6.8494
; tool H0.200 W0.419
G1 X12.118 Y3.217 E6.8523
; tool H0.200 W0.467
G1 X12.198 Y3.249 E6.8556
; tool H0.200 W0.468
G1 X12.278 Y3.219 E6.8589
; tool H0.200 W0.421
G1 X12.358 Y3.202 E6.8618
; tool H0.200 W0.402
G1 X12.438 Y3.200 E6.8645
; tool H0.200 W0.400
G1 X12.998 Y3.200 E6.8831
; tool H0.200 W0.408
G1 X13.078 Y3.208 E6.8858
; tool H0.200 W0.439
G1 X13.158 Y3.231 E6.8889
; tool H0.200 W0.464
G1 X13.238 Y3.233 E6.8919
; tool H0.200 W0.441
G1 X13.318 Y3.208 E6.8950
; tool H0.200 W0.408
G1 X13.398 Y3.200 E6.8977
; tool H0.200 W0.400
G1 X13.478 Y3.200 E6.9004
G1 X13.958 Y3.200 E6.9164
; tool H0.200 W0.402
G1 X14.038 Y3.202 E6.9190
; tool H0.200 W0.419
G1 X14.118 Y3.217 E6.9219
; tool H0.200 W0.466
G1 X14.198 Y3.249 E6.9252
; tool H0.200 W0.468
G1 X14.278 Y3.219 E6.9285
; tool H0.200 W0.421
G1 X14.358 Y3.202 E6.9314
; tool H0.200 W0.402
G1 X14.438 Y3.200 E6.9341
; tool H0.200 W0.400
G1 X14.998 Y3.200 E6.9527
; tool H0.200 W0.408
G1 X15.078 Y3.208 E6.9554
; tool H0.200 W0.439
G1 X15.158 Y3.231 E6.9585
; tool H0.200 W0.464
G1 X15.238 Y3.233 E6.9615
; tool H0.200 W0.442
G1 X15.317 Y3.209 E6.9646
; tool H0.200 W0.409
G1 X15.397 Y3.200 E6.9673
; tool H0.200 W0.400
G1 X15.477 Y3.200 E6.9700
G1 X15.957 Y3.200 E6.9860
; tool H0.200 W0.402
G1 X16.037 Y3.202 E6.9886
; tool H0.200 W0.419
G1 X16.117 Y3.217 E6.9915
; tool H0.200 W0.466
G1 X16.197 Y3.249 E6.9948
; tool H0.200 W0.467
G1 X16.277 Y3.219 E6.9981
; tool H0.200 W0.421
G1 X16.357 Y3.202 E7.0010
; tool H0.200 W0.402
G1 X16.437 Y3.200 E7.0037
; tool H0.200 W0.400
G1 X16.997 Y3.200 E7.0223
; tool H0.200 W0.407
G1 X17.077 Y3.207 E7.0250
; tool H0.200 W0.438
G1 X17.157 Y3.231 E7.0280
; tool H0.200 W0.464
G1 X17.237 Y3.233 E7.0311
; tool H0.200 W0.442
G1 X17.317 Y3.209 E7.0342
; tool H0.200 W0.409
G1 X17.397 Y3.200 E7.0369
; tool H0.200 W0.400
G1 X17.477 Y3.200 E7.0396
G1 X17.957 Y3.200 E7.0556
; tool H0.200 W0.402
G1 X18.037 Y3.202 E7.0582
; tool H0.200 W0.419
G1 X18.117 Y3.217 E7.0611
; tool H0.200 W0.466
G1 X18.197 Y3.248 E7.0644
; tool H0.200 W0.467
G1 X18.277 Y3.219 E7.0677
; tool H0.200 W0.421
G1 X18.357 Y3.202 E7.0706
; tool H0.200 W0.402
G1 X18.437 Y3.200 E7.0732
; tool H0.200 W0.400
G1 X18.997 Y3.200 E7.0919
; tool H0.200 W0.407
G1 X19.077 Y3.207 E7.0946
; tool H0.200 W0.438
G1 X19.157 Y3.231 E7.0976
; tool H0.200 W0.464
G1 X19.237 Y3.233 E7.1007
; tool H0.200 W0.442
G1 X19.317 Y3.209 E7.1038
; tool H0.200 W0.409
G1 X19.397 Y3.200 E7.1065
; tool H0.200 W0.400
G1 X19.477 Y3.200 E7.1092
G1 X19.957 Y3.200 E7.1251
; tool H0.200 W0.402
G1 X20.037 Y3.202 E7.1278
; tool H0.200 W0.419
G1 X20.117 Y3.217 E7.1306
; tool H0.200 W0.465
G1 X20.197 Y3.248 E7.1340
; tool H0.200 W0.467
G1 X20.276 Y3.219 E7.1373
; tool H0.200 W0.421
G1 X20.356 Y3.202 E7.1401
; tool H0.200 W0.402
G1 X20.436 Y3.200 E7.1428
; tool H0.200 W0.400
G1 X20.996 Y3.200 E7.1614
; tool H0.200 W0.407
G1 X21.076 Y3.207 E7.1642
; tool H0.200 W0.438
G1 X21.156 Y3.231 E7.1672
; tool H0.200 W0.464
G1 X21.236 Y3.233 E7.1703
; tool H0.200 W0.442
G1 X21.316 Y3.209 E7.1734
; tool H0.200 W0.409
G1 X21.396 Y3.200 E7.1761
; tool H0.200 W0.400
G1 X21.476 Y3.200 E7.1788
G1 X21.956 Y3.200 E7.1947
; tool H0.200 W0.402
G1 X22.036 Y3.202 E7.1974
; tool H0.200 W0.418
G1 X22.116 Y3.217 E7.2002
; tool H0.200 W0.465
G1 X22.196 Y3.248 E7.2035
; tool H0.200 W0.467
G1 X22.276 Y3.219 E7.2068
; tool H0.200 W0.422
G1 X22.356 Y3.202 E7.2097
; tool H0.200 W0.402
G1 X22.436 Y3.200 E7.2124
; tool H0.200 W0.400
G1 X22.996 Y3.200 E7.2310
; tool H0.200 W0.407
G1 X23.076 Y3.207 E7.2337
; tool H0.200 W0.438
G1 X23.156 Y3.230 E7.2368
; tool H0.200 W0.464
G1 X23.236 Y3.234 E7.2398
; tool H0.200 W0.443
G1 X23.316 Y3.209 E7.2429
; tool H0.200 W0.409
G1 X23.396 Y3.200 E7.2457
; tool H0.200 W0.400
G1 X23.476 Y3.200 E7.2483
G1 X23.956 Y3.200 E7.2643
; tool H0.200 W0.402
G1 X24.036 Y3.202 E7.2670
; tool H0.200 W0.418
G1 X24.116 Y3.217 E7.2698
; tool H0.200 W0.465
G1 X24.196 Y3.248 E7.2731
; tool H0.200 W0.467
G1 X24.276 Y3.219 E7.2764
; tool H0.200 W0.422
G1 X24.356 Y3.202 E7.2793
; tool H0.200 W0.402
G1 X24.436 Y3.200 E7.2820
; tool H0.200 W0.400
G1 X24.996 Y3.200 E7.3006
; tool H0.200 W0.407
G1 X25.076 Y3.207 E7.3033
; tool H0.200 W0.437
G1 X25.156 Y3.230 E7.3063
; tool H0.200 W0.464
G1 X25.235 Y3.234 E7.3094
; tool H0.200 W0.443
G1 X25.315 Y3.209 E7.3125
; tool H0.200 W0.409
G1 X25.395 Y3.200 E7.3152
; tool H0.200 W0.400
G1 X25.475 Y3.200 E7.3179
G1 X25.955 Y3.200 E7.3339
; tool H0.200 W0.402
G1 X26.035 Y3.202 E7.3365
; tool H0.200 W0.418
G1 X26.115 Y3.217 E7.3394
; tool H0.200 W0.464
G1 X26.195 Y3.248 E7.3427
; tool H0.200 W0.467
G1 X26.275 Y3.219 E7.3460
; tool H0.200 W0.422
G1 X26.355 Y3.203 E7.3488
; tool H0.200 W0.403
G1 X26.435 Y3.200 E7.3515
; tool H0.200 W0.400
G1 X26.995 Y3.200 E7.3701
; tool H0.200 W0.407
G1 X27.075 Y3.207 E7.3728
; tool H0.200 W0.437
G1 X27.155 Y3.230 E7.3759
; tool H0.200 W0.464
G1 X27.235 Y3.234 E7.3790
; tool H0.200 W0.443
G1 X27.315 Y3.209 E7.3820
; tool H0.200 W0.409
G1 X27.395 Y3.200 E7.3848
; tool H0.200 W0.400
G1 X27.475 Y3.200 E7.3874
G1 X27.955 Y3.200 E7.4034
; tool H0.200 W0.402
G1 X28.035 Y3.202 E7.4061
; tool H0.200 W0.418
G1 X28.115 Y3.217 E7.4089
; tool H0.200 W0.464
G1 X28.195 Y3.247 E7.4122
; tool H0.200 W0.467
G1 X28.275 Y3.220 E7.4155
; tool H0.200 W0.422
G1 X28.355 Y3.203 E7.4184
; tool H0.200 W0.403
G1 X28.435 Y3.200 E7.4211
; tool H0.200 W0.400
G1 X28.995 Y3.200 E7.4397
; tool H0.200 W0.407
G1 X29.075 Y3.207 E7.4424
; tool H0.200 W0.437
G1 X29.155 Y3.230 E7.4454
; tool H0.200 W0.464
G1 X29.235 Y3.234 E7.4485
; tool H0.200 W0.443
G1 X29.315 Y3.209 E7.4516
; tool H0.200 W0.409
G1 X29.395 Y3.200 E7.4543
; tool H0.200 W0.400
G1 X29.475 Y3.200 E7.4570
G1 X29.955 Y3.200 E7.4730
; tool H0.200 W0.401
G1 X30.035 Y3.201 E7.4756
; tool H0.200 W0.418
G1 X30.114 Y3.216 E7.4785
; tool H0.200 W0.464
G1 X30.194 Y3.247 E7.4818
; tool H0.200 W0.467
G1 X30.274 Y3.220 E7.4850
; tool H0.200 W0.422
G1 X30.354 Y3.203 E7.4879
; tool H0.200 W0.403
G1 X30.434 Y3.200 E7.4906
; tool H0.200 W0.400
G1 X30.994 Y3.200 E7.5092
; tool H0.200 W0.407
G1 X31.074 Y3.207 E7.5119
; tool H0.200 W0.437
G1 X31.154 Y3.230 E7.5150
; tool H0.200 W0.464
G1 X31.234 Y3.234 E7.5180
; tool H0.200 W0.444
G1 X31.314 Y3.209 E7.5211
; tool H0.200 W0.409
G1 X31.394 Y3.200 E7.5239
; tool H0.200 W0.400
G1 X31.474 Y3.200 E7.5265
G1 X31.954 Y3.200 E7.5425
; tool H0.200 W0.401
G1 X32.034 Y3.201 E7.5452
; tool H0.200 W0.418
G1 X32.114 Y3.216 E7.5480
; tool H0.200 W0.463
G1 X32.194 Y3.247 E7.5513
; tool H0.200 W0.467
G1 X32.274 Y3.220 E7.5546
; tool H0.200 W0.422
G1 X32.354 Y3.203 E7.5575
; tool H0.200 W0.403
G1 X32.434 Y3.200 E7.5601
; tool H0.200 W0.400
G1 X32.994 Y3.200 E7.5788
; tool H0.200 W0.407
G1 X33.074 Y3.207 E7.5815
; tool H0.200 W0.436
G1 X33.154 Y3.230 E7.5845
; tool H0.200 W0.464
G1 X33.234 Y3.235 E7.5876
